X: 172
T: Lord of the Dance
M:4/4
R:reel
L:1/8
C:Sydney Carter
Z:added by Alf warnock alf0@rogers.com
K:C
G2|"C"c2c2 e2e2|g2g2 e4| "Dm"d2d2 d2e2|"G7"fedc B2G2|
"C"c2c2 e2e2|g2g2 e3e|"Dm"d2d2 "G7"dfed|"C"c2c2 c4|
P: chorus
"C"g4 e3e|efed c4| e2ef g2fe|"G7"d2G2 G2G2|
"C"c2c2 c3d|"Am"edef g3e|"Dm"d2d2 "G7"dfed|"C"c2c2 c4|
P: lick between verses
"Dm"D2D2 "G7"DFED|"C"C2E2 C4|

